X: 63
T:Granno's March
M:C|
L:1/8
Q:140
S:Mary Richards' (1787-1877) Collection
R:March
A:Wales
Z:brian_martin12345@yahoo.com
K:D
d>e|f4e4|d>dd>dd2A2|a4g4|f>ff>ff2d2|f>ff>a e>ee>g|!
d>dd>fe2A2|(3ded (3efe (3fgf (3gag|(3aba (3gag (3fgf (3efe|d>dd>dd2:||!
d>e|(3fgf (3fgf (3efe (3efe|(3gag (3gag f2d2|f>ff>a e>ee>g|d>dd>fe2A2|!
(3fgf (3fgf (3efe (3efe|(3gag (3gagf4|a4a4|(3aba (3gag (3fgf (3efe|d>dd>dd2:||
